X:18
T:Bourree chainee de Rivarennes
Z:Jack Campin, 2014
F:http://www.campin.me.uk/Music/YoupNannette.abc
S:p27, p1000216.jpg
M:2/4
L:1/8
Q:1/4=120
K:C
g3   a|f2  d2|g>f ed|   c>d ef |\
g3   a|f2  d2|g>f ed|[1 c3   e:|\
                     [2 c4    ||
d>e fd|g>e c2|d>e dc|   B2  G2 |\
d>e fd|g>e c2|d>e dB|   c4    :|

